X:1
T:Where Braving Angry Winter's Storms
M:4/4
L:1/16
K:A
 z8 z4 z2 C2| A,3 C E3 A F3 A E3 A| B3 cd-cB-A F6 A2| A,3 C E3 A F3 A E2a-f|\
 e2A2e-d cB A6 f2| e2f-g a2e2 f2e2 a2c2| d2f-d c2a-c B6 c2| A,3 C E3 A F2A-F E2a-f|\
 e2A2e-dc-B A6 z2|
